X:1
T:The Earl's Chair
R:reel
M:4/4
L:1/8
K:D
A | B2dB BAFA | B2dB BAFB | AFF2 DFF2 | AFdB ADFA |
B2dB BAFA | B2dB BAFB | AFAB defd |1 edef d3 :|2 edef d2 |:
(3Bcd | e3f d3B | e3f dBAB | e3f d3e | fedB ADFA |
e3f dBB2 | gBB2 defg | afbf afeg |1 fedB A2 :|2 fedB A3 |]
%%newpage

